svgs/soundcloud.svg

<svg width="192" height="192" viewBox="0 0 192 192" fill="none" xmlns="http://www.w3.org/2000/svg">
<path d="M14 95V123" stroke="black" stroke-width="12" stroke-linecap="round" stroke-linejoin="round"/>
<path d="M38 82V130" stroke="black" stroke-width="12" stroke-linecap="round" stroke-linejoin="round"/>
<path d="M62 73V131" stroke="black" stroke-width="12" stroke-linecap="round" stroke-linejoin="round"/>
<path d="M86 131H80C80 134.314 82.6863 137 86 137V131ZM147.964 93.6967L141.969 93.4401C141.876 95.6307 142.984 97.6981 144.861 98.832C146.738 99.966 149.083 99.9859 150.979 98.884L147.964 93.6967ZM86 60.5007L82.4578 55.6579C80.9131 56.7877 80 58.5868 80 60.5007H86ZM109 125H86V137H109V125ZM158 125H109V137H158V125ZM172 111C172 118.732 165.732 125 158 125V137C172.359 137 184 125.359 184 111H172ZM158 97C165.732 97 172 103.268 172 111H184C184 96.6406 172.359 85 158 85V97ZM150.979 98.884C153.038 97.6872 155.43 97 158 97V85C153.255 85 148.79 86.2767 144.949 88.5093L150.979 98.884ZM142 92C142 92.4829 141.99 92.963 141.969 93.4401L153.958 93.9532C153.986 93.3052 154 92.6541 154 92H142ZM109 59C127.225 59 142 73.7746 142 92H154C154 67.1472 133.853 47 109 47V59ZM89.5422 65.3435C94.9972 61.3536 101.715 59 109 59V47C99.0831 47 89.8994 50.2149 82.4578 55.6579L89.5422 65.3435ZM80 60.5007V131H92V60.5007H80Z" fill="black"/>
</svg>

<svg xmlns="http://www.w3.org/2000/svg" width="192" height="192" fill="none" xmlns:v="https://vecta.io/nano"><path d="M14 95v28m24-41v48m24-57v58" stroke="#000" stroke-width="12" stroke-linecap="round" stroke-linejoin="round"/><path d="M86 131h-6a6 6 0 0 0 6 6v-6zm61.964-37.303l-5.995-.257a6 6 0 0 0 9.01 5.444l-3.015-5.187zM86 60.501l-3.542-4.843A6 6 0 0 0 80 60.501h6zM109 125H86v12h23v-12zm49 0h-49v12h49v-12zm14-14c0 7.732-6.268 14-14 14v12c14.359 0 26-11.641 26-26h-12zm-14-14c7.732 0 14 6.268 14 14h12c0-14.359-11.641-26-26-26v12zm-7.021 1.884A13.91 13.91 0 0 1 158 97V85c-4.745 0-9.21 1.277-13.051 3.509l6.03 10.375zM142 92a32.75 32.75 0 0 1-.031 1.44l11.989.513A45.24 45.24 0 0 0 154 92h-12zm-33-33c18.225 0 33 14.775 33 33h12c0-24.853-20.147-45-45-45v12zm-19.458 6.344C94.997 61.354 101.715 59 109 59V47c-9.917 0-19.101 3.215-26.542 8.658l7.084 9.686zM80 60.501V131h12V60.501H80z" fill="#000"/></svg>
